img/why/thumb-up.svg

<svg width="31" height="30" viewBox="0 0 31 30" fill="none" xmlns="http://www.w3.org/2000/svg">
<path fill-rule="evenodd" clip-rule="evenodd" d="M19.6934 5.01452L18.625 10H25.5C27.5711 10 29.25 11.6789 29.25 13.75V17.5696C29.25 18.3459 29.0693 19.1115 28.7221 19.8057L26.5365 24.177C25.9013 25.4475 24.6028 26.25 23.1824 26.25H5.5C4.11929 26.25 3 25.1308 3 23.75V13.75C3 12.3693 4.11929 11.25 5.5 11.25H9.25L14.8905 2.22521C15.2696 1.61855 15.9346 1.25 16.65 1.25C18.6315 1.25 20.1085 3.07703 19.6934 5.01452ZM9.25 13.125H5.5C5.15482 13.125 4.875 13.4049 4.875 13.75V23.75C4.875 24.0951 5.15482 24.375 5.5 24.375H9.25V13.125ZM24.8594 23.3385C24.5419 23.9737 23.8926 24.375 23.1824 24.375H11.125V11.7877L16.4805 3.21896C16.517 3.16051 16.5811 3.125 16.65 3.125C17.4377 3.125 18.025 3.85136 17.86 4.62165L16.7916 9.60714C16.673 10.1608 16.8109 10.7384 17.1669 11.1788C17.5229 11.6191 18.0588 11.875 18.625 11.875H25.5C26.5355 11.875 27.375 12.7145 27.375 13.75V17.5696C27.375 18.0548 27.262 18.5333 27.0451 18.9673L24.8594 23.3385Z" fill="#2A179C"/>
</svg>

<svg width="31" height="30" fill="none" xmlns="http://www.w3.org/2000/svg"><path fill-rule="evenodd" clip-rule="evenodd" d="M19.693 5.015 18.625 10H25.5a3.75 3.75 0 0 1 3.75 3.75v3.82c0 .776-.18 1.541-.528 2.236l-2.186 4.371a3.75 3.75 0 0 1-3.354 2.073H5.5a2.5 2.5 0 0 1-2.5-2.5v-10a2.5 2.5 0 0 1 2.5-2.5h3.75l5.64-9.025a2.075 2.075 0 0 1 1.76-.975 3.112 3.112 0 0 1 3.043 3.765ZM9.25 13.125H5.5a.625.625 0 0 0-.625.625v10c0 .345.28.625.625.625h3.75v-11.25Zm15.61 10.213a1.875 1.875 0 0 1-1.678 1.037H11.125V11.788l5.355-8.569a.2.2 0 0 1 .17-.094c.788 0 1.375.726 1.21 1.497l-1.068 4.985a1.875 1.875 0 0 0 1.833 2.268H25.5c1.035 0 1.875.84 1.875 1.875v3.82c0 .485-.113.963-.33 1.397L24.86 23.34Z" fill="#2A179C"/></svg>
